public/svg/enterprise.svg

<svg width="340" height="337" viewBox="0 0 340 337" fill="none" xmlns="http://www.w3.org/2000/svg">
<path d="M59.5219 36.3255C59.5219 28.1353 66.1624 21.4948 74.3526 21.4948C82.5428 21.4948 89.1833 28.1353 89.1833 36.3255H59.5219Z" fill="#E65678"/>
<path d="M0.124313 36.3266C0.124313 19.9196 13.4267 6.61726 29.8336 6.61726C46.2406 6.61726 59.5376 19.9196 59.5376 36.3266H0.124313Z" fill="#E65678"/>
<path d="M0 336.612L41.5357 336.612L41.5357 295.076L5.44674e-06 295.076L0 336.612Z" fill="#E65678"/>
<path d="M41.5357 295.157L161.816 295.157L161.816 175.742L41.5357 175.742L41.5357 295.157Z" fill="#FFC267"/>
<path d="M161.816 175.661L339.208 175.661L339.208 3.05176e-05L161.816 7.25543e-06L161.816 175.661Z" fill="#2EB67D"/>
<path d="M133.26 229.4L96.8313 285.558L96.7095 242.034H68.3608L104.947 186.045V229.53L133.26 229.4Z" fill="#1EB4D4"/>
<path d="M30.2864 315.411C30.2864 309.915 26.0248 305.46 20.7679 305.46C15.5109 305.46 11.2493 309.915 11.2493 315.411C11.2493 320.907 15.5109 325.362 20.7679 325.362C26.0248 325.362 30.2864 320.907 30.2864 315.411Z" fill="#111B29"/>
<path d="M268.448 252.711C268.448 242.954 260.537 235.043 250.78 235.043C241.023 235.043 233.113 242.954 233.113 252.711H268.448Z" fill="#1EB4D4"/>
<path d="M339.208 252.712C339.208 233.167 323.361 217.32 303.816 217.32C284.27 217.32 268.43 233.167 268.43 252.712H339.208Z" fill="#1EB4D4"/>
<path d="M21.7176 87.9022L10.9209 77.1056L0.124325 87.9022L10.9209 98.6988L21.7176 87.9022Z" fill="#2EB67D"/>
<path d="M106.164 97.752L106.164 78.0586L86.4709 78.0586L86.4709 97.752L106.164 97.752Z" fill="#1EB4D4"/>
<path d="M53.7978 77.3453C48.1641 77.3453 43.5971 81.9123 43.5971 87.546C43.5971 93.1797 48.1641 97.7467 53.7978 97.7467C59.4315 97.7467 63.9985 93.1797 63.9985 87.546C63.9985 81.9123 59.4315 77.3453 53.7978 77.3453Z" fill="#E65678"/>
<path d="M255.522 315.903L244.725 305.106L233.929 315.903L244.725 326.7L255.522 315.903Z" fill="#2EB67D"/>
<path d="M339.581 326.107L339.581 306.413L319.887 306.413L319.887 326.107L339.581 326.107Z" fill="#1EB4D4"/>
<path d="M287.948 305.346C282.314 305.346 277.747 309.913 277.747 315.547C277.747 321.18 282.314 325.747 287.948 325.747C293.582 325.747 298.149 321.18 298.149 315.547C298.149 309.913 293.582 305.346 287.948 305.346Z" fill="#E65678"/>
<path d="M312.693 87.8838C295.51 87.8838 279.956 94.8654 268.706 106.115C257.456 117.365 250.511 132.92 250.511 150.066C250.511 132.883 243.529 117.329 232.315 106.115C221.065 94.8654 205.511 87.8838 188.329 87.8838C205.511 87.8838 221.065 80.9386 232.315 69.6887C243.565 58.4388 250.511 42.8841 250.511 25.7018C250.474 60.0665 278.328 87.8838 312.693 87.8838Z" fill="#F8F8F8"/>
<path d="M13.3905 249.069L1.48708 242.036V227.997L13.3905 220.965L25.2939 227.997V242.036L13.3905 249.069ZM2.84937 241.259L13.3942 247.489L23.939 241.259V228.771L13.3942 222.541L2.84937 228.771V241.259Z" fill="#2EB67D"/>
<path d="M13.3916 224.474C14.7073 224.474 15.7738 223.407 15.7738 222.092C15.7738 220.776 14.7073 219.71 13.3916 219.71C12.076 219.71 11.0095 220.776 11.0095 222.092C11.0095 223.407 12.076 224.474 13.3916 224.474Z" fill="#2EB67D"/>
<path d="M13.3916 250.321C14.7073 250.321 15.7738 249.254 15.7738 247.939C15.7738 246.623 14.7073 245.557 13.3916 245.557C12.076 245.557 11.0095 246.623 11.0095 247.939C11.0095 249.254 12.076 250.321 13.3916 250.321Z" fill="#2EB67D"/>
<path d="M2.50647 243.52C3.8221 243.52 4.88863 242.453 4.88863 241.138C4.88863 239.822 3.8221 238.756 2.50647 238.756C1.19084 238.756 0.124313 239.822 0.124313 241.138C0.124313 242.453 1.19084 243.52 2.50647 243.52Z" fill="#2EB67D"/>
<path d="M24.2732 243.52C25.5888 243.52 26.6553 242.453 26.6553 241.138C26.6553 239.822 25.5888 238.756 24.2732 238.756C22.9575 238.756 21.891 239.822 21.891 241.138C21.891 242.453 22.9575 243.52 24.2732 243.52Z" fill="#2EB67D"/>
<path d="M2.50647 231.274C3.8221 231.274 4.88863 230.207 4.88863 228.892C4.88863 227.576 3.8221 226.51 2.50647 226.51C1.19084 226.51 0.124313 227.576 0.124313 228.892C0.124313 230.207 1.19084 231.274 2.50647 231.274Z" fill="#2EB67D"/>
<path d="M24.2732 231.274C25.5888 231.274 26.6553 230.207 26.6553 228.892C26.6553 227.576 25.5888 226.51 24.2732 226.51C22.9575 226.51 21.891 227.576 21.891 228.892C21.891 230.207 22.9575 231.274 24.2732 231.274Z" fill="#2EB67D"/>
<path d="M25.7829 242.158H0.996613L13.3897 220.376L25.7829 242.158ZM3.33828 240.796H23.4449L13.3897 223.126L3.33828 240.796Z" fill="#2EB67D"/>
</svg>

<svg xmlns="http://www.w3.org/2000/svg" xmlns:xlink="http://www.w3.org/1999/xlink" width="340" height="337" fill="none" xmlns:v="https://vecta.io/nano"><g fill="#e65678"><path d="M59.522 36.326c0-8.19 6.641-14.831 14.831-14.831s14.831 6.64 14.831 14.831H59.522z"/><path d="M.124 36.327c0-16.407 13.302-29.709 29.709-29.709S59.538 19.92 59.538 36.327H.124zM0 336.612h41.536v-41.536H0v41.536z"/></g><path d="M41.536 295.157h120.28V175.742H41.536v119.415z" fill="#ffc267"/><path d="M161.816 175.661h177.392V0H161.816v175.661z" fill="#2eb67d"/><path d="M133.26 229.4l-36.429 56.158-.122-43.524H68.361l36.586-55.989v43.485l28.313-.13z" fill="#1eb4d4"/><path d="M30.286 315.411c0-5.496-4.262-9.951-9.518-9.951s-9.519 4.455-9.519 9.951 4.262 9.951 9.519 9.951 9.519-4.455 9.519-9.951z" fill="#111b29"/><g fill="#1eb4d4"><path d="M268.448 252.711c0-9.757-7.911-17.668-17.668-17.668s-17.667 7.911-17.667 17.668h35.335z"/><path d="M339.208 252.712c0-19.545-15.847-35.392-35.392-35.392s-35.386 15.847-35.386 35.392h70.778z"/></g><path d="M21.718 87.902L10.921 77.106.124 87.902l10.797 10.797 10.797-10.797z" fill="#2eb67d"/><path d="M106.164 97.752V78.059H86.471v19.693h19.693z" fill="#1eb4d4"/><path d="M53.798 77.345c-5.634 0-10.201 4.567-10.201 10.201s4.567 10.201 10.201 10.201 10.201-4.567 10.201-10.201-4.567-10.201-10.201-10.201z" fill="#e65678"/><path d="M255.522 315.903l-10.797-10.797-10.796 10.797 10.796 10.797 10.797-10.797z" fill="#2eb67d"/><path d="M339.581 326.107v-19.694h-19.694v19.694h19.694z" fill="#1eb4d4"/><path d="M287.948 305.346c-5.634 0-10.201 4.567-10.201 10.201s4.567 10.2 10.201 10.2 10.201-4.567 10.201-10.2-4.567-10.201-10.201-10.201z" fill="#e65678"/><path d="M312.693 87.884c-17.183 0-32.737 6.982-43.987 18.231s-18.195 26.805-18.195 43.951a62 62 0 0 0-18.196-43.951c-11.25-11.25-26.804-18.231-43.986-18.231 17.182 0 32.736-6.945 43.986-18.195a62 62 0 0 0 18.196-43.987c-.037 34.365 27.817 62.182 62.182 62.182z" fill="#f8f8f8"/><g fill="#2eb67d"><path d="M13.391 249.069l-11.903-7.033v-14.039l11.903-7.032 11.903 7.032v14.039l-11.903 7.033zm-10.541-7.81l10.545 6.23 10.545-6.23v-12.488l-10.545-6.23-10.545 6.23v12.488z"/><use xlink:href="#B"/><use xlink:href="#B" y="25.847"/><use xlink:href="#B" x="-10.886" y="19.046"/><use xlink:href="#B" x="10.881" y="19.046"/><use xlink:href="#B" x="-10.886" y="6.8"/><use xlink:href="#B" x="10.881" y="6.8"/><path d="M25.783 242.158H.997l12.393-21.782 12.393 21.782zm-22.445-1.362h20.107l-10.055-17.67-10.051 17.67z"/></g><defs ><path id="B" d="M13.392 224.474c1.316 0 2.382-1.067 2.382-2.382a2.38 2.38 0 1 0-4.764 0c0 1.315 1.067 2.382 2.382 2.382z"/></defs></svg>
